samples/demo_quad_split/luts/warm_red.cube
# Phase F.0.10.8.1 demo - warm tint LUT (4^3, R boosted 黄昏暖调)
# 算法: identity + R += 0.15 (clamp), G += 0.05, B 保持
TITLE "Warm Red Tint 4^3"
DOMAIN_MIN 0.0 0.0 0.0
DOMAIN_MAX 1.0 1.0 1.0
LUT_3D_SIZE 4
0.150000 0.050000 0.000000
0.483333 0.050000 0.000000
0.816667 0.050000 0.000000
1.000000 0.050000 0.000000
0.150000 0.383333 0.000000
0.483333 0.383333 0.000000
0.816667 0.383333 0.000000
1.000000 0.383333 0.000000
0.150000 0.716667 0.000000
0.483333 0.716667 0.000000
0.816667 0.716667 0.000000
1.000000 0.716667 0.000000
0.150000 1.000000 0.000000
0.483333 1.000000 0.000000
0.816667 1.000000 0.000000
1.000000 1.000000 0.000000
0.150000 0.050000 0.333333
0.483333 0.050000 0.333333
0.816667 0.050000 0.333333
1.000000 0.050000 0.333333
0.150000 0.383333 0.333333
0.483333 0.383333 0.333333
0.816667 0.383333 0.333333
1.000000 0.383333 0.333333
0.150000 0.716667 0.333333
0.483333 0.716667 0.333333
0.816667 0.716667 0.333333
1.000000 0.716667 0.333333
0.150000 1.000000 0.333333
0.483333 1.000000 0.333333
0.816667 1.000000 0.333333
1.000000 1.000000 0.333333
0.150000 0.050000 0.666667
0.483333 0.050000 0.666667
0.816667 0.050000 0.666667
1.000000 0.050000 0.666667
0.150000 0.383333 0.666667
0.483333 0.383333 0.666667
0.816667 0.383333 0.666667
1.000000 0.383333 0.666667
0.150000 0.716667 0.666667
0.483333 0.716667 0.666667
0.816667 0.716667 0.666667
1.000000 0.716667 0.666667
0.150000 1.000000 0.666667
0.483333 1.000000 0.666667
0.816667 1.000000 0.666667
1.000000 1.000000 0.666667
0.150000 0.050000 1.000000
0.483333 0.050000 1.000000
0.816667 0.050000 1.000000
1.000000 0.050000 1.000000
0.150000 0.383333 1.000000
0.483333 0.383333 1.000000
0.816667 0.383333 1.000000
1.000000 0.383333 1.000000
0.150000 0.716667 1.000000
0.483333 0.716667 1.000000
0.816667 0.716667 1.000000
1.000000 0.716667 1.000000
0.150000 1.000000 1.000000
0.483333 1.000000 1.000000
0.816667 1.000000 1.000000
1.000000 1.000000 1.000000
