samples/demo_multi_hdr_pip/luts/cool_blue.cube
# Phase F.0.10.8.1 demo - cool tint LUT (4^3, B boosted 冷夜蓝调)
# 算法: identity + B += 0.15 (clamp), G += 0.05, R 保持
TITLE "Cool Blue Tint 4^3"
DOMAIN_MIN 0.0 0.0 0.0
DOMAIN_MAX 1.0 1.0 1.0
LUT_3D_SIZE 4
0.000000 0.050000 0.150000
0.333333 0.050000 0.150000
0.666667 0.050000 0.150000
1.000000 0.050000 0.150000
0.000000 0.383333 0.150000
0.333333 0.383333 0.150000
0.666667 0.383333 0.150000
1.000000 0.383333 0.150000
0.000000 0.716667 0.150000
0.333333 0.716667 0.150000
0.666667 0.716667 0.150000
1.000000 0.716667 0.150000
0.000000 1.000000 0.150000
0.333333 1.000000 0.150000
0.666667 1.000000 0.150000
1.000000 1.000000 0.150000
0.000000 0.050000 0.483333
0.333333 0.050000 0.483333
0.666667 0.050000 0.483333
1.000000 0.050000 0.483333
0.000000 0.383333 0.483333
0.333333 0.383333 0.483333
0.666667 0.383333 0.483333
1.000000 0.383333 0.483333
0.000000 0.716667 0.483333
0.333333 0.716667 0.483333
0.666667 0.716667 0.483333
1.000000 0.716667 0.483333
0.000000 1.000000 0.483333
0.333333 1.000000 0.483333
0.666667 1.000000 0.483333
1.000000 1.000000 0.483333
0.000000 0.050000 0.816667
0.333333 0.050000 0.816667
0.666667 0.050000 0.816667
1.000000 0.050000 0.816667
0.000000 0.383333 0.816667
0.333333 0.383333 0.816667
0.666667 0.383333 0.816667
1.000000 0.383333 0.816667
0.000000 0.716667 0.816667
0.333333 0.716667 0.816667
0.666667 0.716667 0.816667
1.000000 0.716667 0.816667
0.000000 1.000000 0.816667
0.333333 1.000000 0.816667
0.666667 1.000000 0.816667
1.000000 1.000000 0.816667
0.000000 0.050000 1.000000
0.333333 0.050000 1.000000
0.666667 0.050000 1.000000
1.000000 0.050000 1.000000
0.000000 0.383333 1.000000
0.333333 0.383333 1.000000
0.666667 0.383333 1.000000
1.000000 0.383333 1.000000
0.000000 0.716667 1.000000
0.333333 0.716667 1.000000
0.666667 0.716667 1.000000
1.000000 0.716667 1.000000
0.000000 1.000000 1.000000
0.333333 1.000000 1.000000
0.666667 1.000000 1.000000
1.000000 1.000000 1.000000
